chrome/img/svgs/backup-header.svg

<?xml version="1.0" encoding="UTF-8"?>
<svg width="348px" height="348px" viewBox="0 0 348 348" version="1.1" xmlns="http://www.w3.org/2000/svg" xmlns:xlink="http://www.w3.org/1999/xlink">
    <!-- Generator: Sketch 42 (36781) - http://www.bohemiancoding.com/sketch -->
    <title>backup-header</title>
    <desc>Created with Sketch.</desc>
    <defs>
        <radialGradient cx="50%" cy="-5.7026977%" fx="50%" fy="-5.7026977%" r="244.791161%" id="radialGradient-1">
            <stop stop-color="#FFFFFF" offset="0%"></stop>
            <stop stop-color="#BEDEB6" offset="44.2635823%"></stop>
            <stop stop-color="#BAF3AD" offset="100%"></stop>
        </radialGradient>
        <path d="M92.0384068,130.485058 L91.6682615,130.485058 C70.3901931,130.234993 52.1663524,114.817849 48.335877,93.8293405 C46.8404899,85.6407705 47.752105,77.5136572 50.5250223,70.1621693 C49.5309177,70.5224325 48.5325828,70.8784573 47.5807806,71.3340843 C47.3586934,71.440044 47.1471818,71.5650765 46.9293248,71.6752747 C45.7829319,72.2559341 44.674611,72.906527 43.6022471,73.6164574 C43.3674692,73.7732778 43.1221157,73.9152639 42.889453,74.0784419 C41.7176786,74.8985704 40.5966671,75.8034668 39.5327637,76.7782965 C39.3064462,76.9923352 39.0907044,77.2127315 38.8686172,77.4267702 C37.9168149,78.3528585 37.0136603,79.3319266 36.1718441,80.3745706 C36.0470522,80.5271527 35.9116848,80.6670196 35.7911232,80.8217208 C34.8879686,81.9851589 34.075764,83.2376032 33.3248978,84.5366699 C33.1493431,84.8397148 32.9864792,85.146998 32.8236152,85.4521621 C32.0960153,86.8126854 31.4255235,88.2113542 30.8819386,89.6947908 C24.642346,106.769146 33.3925815,125.678724 50.4340723,131.940946 C52.9658663,132.869153 55.5378475,133.42862 58.1055985,133.712593 L67.7018805,154.44044 L80.0880006,158.990352 L75.5489614,171.39612 L75.6356811,171.584729 L88.0196862,176.130402 L83.482762,188.540409 L83.5694818,188.724779 L95.9556019,193.272571 L91.8438161,204.529736 L113.284749,212.404665 L121.563313,189.752588 L110.274938,165.320388 L94.1069904,130.419363 C93.4153474,130.451151 92.7258196,130.485058 92.0384068,130.485058 Z" id="path-2"></path>
        <filter x="-50%" y="-50%" width="200%" height="200%" filterUnits="objectBoundingBox" id="filter-3">
            <feOffset dx="0" dy="4" in="SourceAlpha" result="shadowOffsetOuter1"></feOffset>
            <feGaussianBlur stdDeviation="2.5" in="shadowOffsetOuter1" result="shadowBlurOuter1"></feGaussianBlur>
            <feColorMatrix values="0 0 0 0 0   0 0 0 0 0   0 0 0 0 0  0 0 0 0.5 0" type="matrix" in="shadowBlurOuter1"></feColorMatrix>
        </filter>
        <path d="M202.259214,142.044076 L129.717546,94.5555616 C129.895216,91.6225955 129.51192,82.0889995 128.964104,79.0670272 C128.744132,77.8612052 128.460707,76.6808135 128.130749,75.5279714 C128.022878,75.1507547 127.891741,74.7862531 127.766949,74.4175132 C127.527941,73.6461261 127.276242,72.8853351 126.988586,72.1436168 C126.821492,71.7155394 126.629016,71.3086539 126.453462,70.8954109 C126.161576,70.2299836 125.871805,69.5666755 125.541847,68.9266786 C125.326105,68.5028396 125.101902,68.0917157 124.875585,67.6805919 C124.541397,67.0723829 124.192402,66.4705314 123.822257,65.8835144 C123.566328,65.4808673 123.312514,65.0888162 123.039664,64.6946459 C122.654713,64.1245825 122.250726,63.5693533 121.831933,63.0268394 C121.548507,62.6559802 121.262967,62.2851211 120.975311,61.9290963 C120.520561,61.3887015 120.04889,60.8652604 119.566643,60.3481767 C119.268412,60.0260591 118.980756,59.699703 118.669834,59.3903006 C118.124134,58.841429 117.557283,58.3243454 116.973511,57.8136194 C116.700661,57.5720311 116.446847,57.3134893 116.161306,57.0824971 C115.294109,56.3513747 114.3973,55.6605171 113.466648,55.0162818 C112.430242,54.3169474 111.516511,53.7511223 110.58163,53.2192044 C110.255902,53.0348344 109.915368,52.8695372 109.579065,52.693644 C108.906458,52.3397384 108.235966,51.9921904 107.537978,51.6785495 C107.140336,51.5005371 106.725773,51.3415975 106.317556,51.1741811 C105.67033,50.9092817 105.023105,50.6528591 104.358958,50.4218668 C103.919014,50.2692848 103.47484,50.1336563 103.026435,49.9980278 C102.368634,49.7967042 101.708718,49.6165727 101.042456,49.4533946 C100.401576,62.914522 95.0059148,75.6699575 85.3017619,85.3949439 C83.2395237,87.4653975 80.496218,88.6012861 77.581588,88.6012861 C74.6648428,88.6012861 71.9236523,87.4653975 69.8592989,85.3949439 C65.6036853,81.1311233 65.6036853,74.1886401 69.8592989,69.9227003 C75.0751753,64.6988843 78.1886263,58.0170621 78.9733344,50.8668978 C62.4500471,57.1418345 52.2086547,74.4768506 55.5018905,92.5112011 C58.7676299,110.409923 74.2545103,122.980989 91.7592115,123.18867 C92.5650708,123.199266 93.3793905,123.159001 94.1958253,123.120855 C94.5786613,123.097544 94.9572671,123.097544 95.3401031,123.072114 C96.539374,122.968273 97.7428751,122.815691 98.9506064,122.593176 C101.964647,122.040066 104.809478,121.10762 107.487215,119.899679 L128.807586,134.659873 L143.558406,131.960018 L146.255179,146.735047 L161.190014,144.166582 L163.876212,158.941611 L178.815277,156.373146 L181.266697,169.770698 L206.800379,165.089396 L202.259214,142.044076 Z" id="path-4"></path>
        <filter x="-50%" y="-50%" width="200%" height="200%" filterUnits="objectBoundingBox" id="filter-5">
            <feOffset dx="0" dy="4" in="SourceAlpha" result="shadowOffsetOuter1"></feOffset>
            <feGaussianBlur stdDeviation="2.5" in="shadowOffsetOuter1" result="shadowBlurOuter1"></feGaussianBlur>
            <feColorMatrix values="0 0 0 0 0   0 0 0 0 0   0 0 0 0 0  0 0 0 0.5 0" type="matrix" in="shadowBlurOuter1"></feColorMatrix>
        </filter>
        <path d="M75.0011463,75.0808212 C73.5797882,76.5049203 73.5797882,78.8127238 75.0011463,80.236823 C75.7118253,80.9509917 76.6424764,81.3048973 77.5752426,81.3048973 C78.5058937,81.3048973 79.4365448,80.9509917 80.149339,80.236823 C90.8729778,69.4903845 95.2195415,54.7852896 93.2969009,40.7816482 C91.9580324,31.0333506 87.6114687,21.6283627 80.1514541,14.1539615 C71.0585698,5.04142249 59.1145089,0.487272171 47.1725632,0.487272171 C44.473675,0.487272171 41.7832472,0.752171561 39.1182009,1.21839449 C38.8347753,1.26713598 38.5428893,1.28620873 38.2594637,1.33918861 C37.5868568,1.47057871 36.9248254,1.66978305 36.2585639,1.83084188 C35.4653953,2.01945024 34.6679965,2.17838988 33.8854035,2.40938215 C33.7648419,2.44540846 33.6442803,2.49838834 33.5279489,2.53441466 C28.4220585,4.09202307 23.5509461,6.57783895 19.1261231,9.92404804 C17.412879,11.2167571 15.7482826,12.5942339 14.1915571,14.1560807 C-3.99421149,32.3748012 -3.99421149,62.0202217 14.1915571,80.2410613 C17.1125325,83.1676698 20.3867323,85.6450089 23.9020553,87.6709594 C23.9570484,87.514139 23.9908902,87.3551994 24.0479984,87.1962597 C24.6550367,85.5348108 25.408018,83.8839578 26.4655761,81.9109871 C26.6284401,81.6037038 26.7934191,81.3027781 26.9583982,81.0124484 C24.2066321,79.367953 21.6409962,77.3949823 19.3355196,75.0829404 C3.99246707,59.710299 3.99246707,34.686843 19.3355196,19.3120824 C21.655802,16.9873254 24.2172076,15.0588578 26.9097505,13.4334352 C28.2930365,12.6027107 29.7249701,11.8948995 31.18017,11.248545 C31.5355095,11.0896054 31.8866188,10.9370233 32.2419583,10.792918 C33.692928,10.195305 35.1629337,9.66338704 36.6604359,9.2480248 C36.7915731,9.21199848 36.9248254,9.18868734 37.0538475,9.1590186 C38.4582846,8.78392107 39.8796427,8.50630651 41.3094612,8.29014861 C41.6796065,8.23504953 42.0476367,8.17995046 42.4177821,8.13332817 C43.947011,7.946839 45.4825854,7.83028326 47.0202748,7.82392568 C47.0752678,7.82392568 47.1281457,7.8133297 47.1831387,7.8133297 C47.8768968,7.8133297 48.5643096,7.859952 49.2559526,7.9002167 C49.609177,7.91717026 49.9602862,7.91505107 50.3135106,7.94260061 C51.4260617,8.0316068 52.5407279,8.1629969 53.6469337,8.34524768 C59.7744252,9.36246134 65.6925201,11.835562 70.8682093,15.7581922 C72.3022581,16.8453393 73.6982347,18.0003006 75.0053765,19.307844 C81.1645947,25.4789402 84.8068247,33.209764 86.0209014,41.2457519 C87.8314408,53.2213236 84.1870957,65.8729184 75.0011463,75.0808212 Z" id="path-6"></path>
        <filter x="-50%" y="-50%" width="200%" height="200%" filterUnits="objectBoundingBox" id="filter-7">
            <feOffset dx="0" dy="4" in="SourceAlpha" result="shadowOffsetOuter1"></feOffset>
            <feGaussianBlur stdDeviation="2.5" in="shadowOffsetOuter1" result="shadowBlurOuter1"></feGaussianBlur>
            <feColorMatrix values="0 0 0 0 0   0 0 0 0 0   0 0 0 0 0  0 0 0 0.5 0" type="matrix" in="shadowBlurOuter1"></feColorMatrix>
        </filter>
    </defs>
    <g id="Playground" stroke="none" stroke-width="1" fill="none" fill-rule="evenodd">
        <g id="backup-header" transform="translate(15.000000, 15.000000)">
            <circle id="Oval-3" stroke="#31A217" stroke-width="30" fill="#31A217" cx="159" cy="159" r="159"></circle>
            <g id="keys-icon" transform="translate(167.537551, 169.658872) rotate(-345.000000) translate(-167.537551, -169.658872) translate(64.037551, 63.158872)" fill-rule="nonzero">
                <g id="Shape">
                    <use fill="black" fill-opacity="1" filter="url(#filter-3)" xlink:href="#path-2"></use>
                    <use fill="url(#radialGradient-1)" fill-rule="evenodd" xlink:href="#path-2"></use>
                </g>
                <g id="Shape">
                    <use fill="black" fill-opacity="1" filter="url(#filter-5)" xlink:href="#path-4"></use>
                    <use fill="#FFFFFF" fill-rule="evenodd" xlink:href="#path-4"></use>
                </g>
                <g id="Shape">
                    <use fill="black" fill-opacity="1" filter="url(#filter-7)" xlink:href="#path-6"></use>
                    <use fill="#FFFFFF" fill-rule="evenodd" xlink:href="#path-6"></use>
                </g>
            </g>
        </g>
    </g>
</svg>

<svg width="348" height="348" viewBox="0 0 348 348" xmlns="http://www.w3.org/2000/svg" xmlns:xlink="http://www.w3.org/1999/xlink"><title>backup-header</title><defs><radialGradient cy="-5.703%" fx="50%" fy="-5.703%" r="244.791%" id="c"><stop stop-color="#FFF" offset="0%"/><stop stop-color="#BEDEB6" offset="44.264%"/><stop stop-color="#BAF3AD" offset="100%"/></radialGradient><path d="M92.038 130.485h-.37c-21.278-.25-39.502-15.667-43.332-36.656-1.496-8.188-.584-16.315 2.189-23.667-.994.36-1.992.716-2.944 1.172-.222.106-.434.231-.652.341a33.23 33.23 0 0 0-3.327 1.941c-.235.157-.48.3-.713.462a32.91 32.91 0 0 0-3.356 2.7c-.227.214-.442.435-.664.649a33.32 33.32 0 0 0-2.697 2.948c-.125.152-.26.292-.38.447-.904 1.163-1.716 2.416-2.467 3.715-.176.303-.339.61-.501.915-.728 1.36-1.398 2.76-1.942 4.243-6.24 17.074 2.51 35.984 19.552 42.246 2.532.928 5.104 1.488 7.672 1.772l9.596 20.727 12.386 4.55-4.539 12.406.087.189 12.384 4.545-4.537 12.41.086.185 12.387 4.548-4.112 11.257 21.44 7.875 8.28-22.652-11.29-24.433-16.167-34.9c-.692.031-1.381.065-2.069.065z" id="b"/><filter x="-50%" y="-50%" width="200%" height="200%" filterUnits="objectBoundingBox" id="a"><feOffset dy="4" in="SourceAlpha" result="shadowOffsetOuter1"/><feGaussianBlur stdDeviation="2.5" in="shadowOffsetOuter1" result="shadowBlurOuter1"/><feColorMatrix values="0 0 0 0 0 0 0 0 0 0 0 0 0 0 0 0 0 0 0.5 0" in="shadowBlurOuter1"/></filter><path d="M202.26 142.044l-72.542-47.488c.177-2.933-.206-12.467-.754-15.489a36.988 36.988 0 0 0-.833-3.539c-.108-.377-.24-.742-.364-1.11a34.62 34.62 0 0 0-.778-2.274c-.168-.428-.36-.835-.536-1.249-.291-.665-.581-1.328-.911-1.968-.216-.424-.44-.835-.666-1.246a34.661 34.661 0 0 0-1.836-2.986 32.45 32.45 0 0 0-1.208-1.668c-.283-.371-.569-.742-.857-1.098a41.479 41.479 0 0 0-1.408-1.58c-.299-.323-.586-.65-.897-.959a33.204 33.204 0 0 0-1.696-1.576c-.273-.242-.527-.5-.813-.732a35.753 35.753 0 0 0-2.694-2.066 43.502 43.502 0 0 0-2.885-1.797c-.326-.184-.667-.35-1.003-.525a36.587 36.587 0 0 0-2.041-1.015c-.398-.178-.812-.337-1.22-.505a38.909 38.909 0 0 0-1.959-.752c-.44-.153-.884-.288-1.333-.424a36.162 36.162 0 0 0-1.984-.545c-.64 13.462-6.036 26.217-15.74 35.942a10.823 10.823 0 0 1-7.72 3.206 10.828 10.828 0 0 1-7.723-3.206c-4.255-4.264-4.255-11.206 0-15.472 5.216-5.224 8.33-11.906 9.114-19.056C62.45 57.142 52.21 74.477 55.502 92.51c3.266 17.899 18.753 30.47 36.257 30.678.806.01 1.62-.03 2.437-.068.383-.023.761-.023 1.144-.049 1.2-.104 2.403-.256 3.61-.479 3.015-.553 5.86-1.485 8.537-2.693l21.32 14.76 14.751-2.7 2.697 14.775 14.935-2.568 2.686 14.775 14.94-2.569 2.45 13.398 25.534-4.682-4.54-23.045z" id="e"/><filter x="-50%" y="-50%" width="200%" height="200%" filterUnits="objectBoundingBox" id="d"><feOffset dy="4" in="SourceAlpha" result="shadowOffsetOuter1"/><feGaussianBlur stdDeviation="2.5" in="shadowOffsetOuter1" result="shadowBlurOuter1"/><feColorMatrix values="0 0 0 0 0 0 0 0 0 0 0 0 0 0 0 0 0 0 0.5 0" in="shadowBlurOuter1"/></filter><path d="M75.001 75.08a3.65 3.65 0 0 0 0 5.157 3.615 3.615 0 0 0 2.574 1.068c.93 0 1.862-.354 2.574-1.068C90.873 69.49 95.22 54.785 93.297 40.782c-1.339-9.749-5.686-19.154-13.146-26.628C71.06 5.041 59.115.487 47.173.487c-2.7 0-5.39.265-8.055.731-.283.05-.575.068-.859.121-.672.132-1.334.33-2 .492-.794.188-1.591.347-2.374.578-.12.036-.24.09-.357.125-5.106 1.558-9.977 4.044-14.402 7.39-1.713 1.293-3.378 2.67-4.934 4.232-18.186 18.219-18.186 47.864 0 66.085a46.494 46.494 0 0 0 9.71 7.43c.055-.157.089-.316.146-.475.607-1.661 1.36-3.312 2.418-5.285.162-.307.327-.608.492-.899a38.966 38.966 0 0 1-7.622-5.93c-15.344-15.372-15.344-40.395 0-55.77 2.32-2.325 4.881-4.253 7.574-5.879 1.383-.83 2.815-1.538 4.27-2.184.356-.16.707-.312 1.062-.456 1.45-.598 2.92-1.13 4.418-1.545.132-.036.265-.06.394-.089a39.136 39.136 0 0 1 4.255-.869c.37-.055.739-.11 1.109-.157a39.375 39.375 0 0 1 4.602-.31c.055 0 .108-.01.163-.01.694 0 1.381.047 2.073.087.353.017.704.015 1.058.043 1.112.089 2.227.22 3.333.402a39.047 39.047 0 0 1 17.221 7.413c1.434 1.087 2.83 2.242 4.137 3.55 6.16 6.17 9.802 13.902 11.016 21.938C87.83 53.22 84.187 65.873 75 75.08z" id="g"/><filter x="-50%" y="-50%" width="200%" height="200%" filterUnits="objectBoundingBox" id="f"><feOffset dy="4" in="SourceAlpha" result="shadowOffsetOuter1"/><feGaussianBlur stdDeviation="2.5" in="shadowOffsetOuter1" result="shadowBlurOuter1"/><feColorMatrix values="0 0 0 0 0 0 0 0 0 0 0 0 0 0 0 0 0 0 0.5 0" in="shadowBlurOuter1"/></filter></defs><g transform="translate(15 15)" fill="none" fill-rule="evenodd"><circle stroke="#31A217" stroke-width="30" fill="#31A217" cx="159" cy="159" r="159"/><g fill-rule="nonzero"><g transform="rotate(15 -104.35 381.286)"><use fill="#000" filter="url(#a)" xlink:href="#b"/><use fill="url(#c)" fill-rule="evenodd" xlink:href="#b"/></g><g transform="rotate(15 -104.35 381.286)"><use fill="#000" filter="url(#d)" xlink:href="#e"/><use fill="#FFF" fill-rule="evenodd" xlink:href="#e"/></g><g transform="rotate(15 -104.35 381.286)"><use fill="#000" filter="url(#f)" xlink:href="#g"/><use fill="#FFF" fill-rule="evenodd" xlink:href="#g"/></g></g></g></svg>
